X: 436
T: Zaihe gege zuo yizheng
%%abc-version 2.0
%%abcx-abcm2ps-target-version 5.9.1 (29 Sep 2008)
%%abc-creator hum2abc beta
%%abcx-conversion-date 2013/10/02 07:52:30
%%abc-edited-by Helmut Schaffrath
%%humdrum-veritas 4684433
%%humdrum-veritas-data 1367696864
%%continueall 1
%%barnumbers 0
L: 1/8
M: 2/4
K: D
e Be2 [I:setbarnb 1]| 
B e B A/ A/ | 
G E A B | 
E4 | 
e Be2 | 
B e B A/ A/ | 
G E A B | 
A4 |]  



